X:838
T:Exile of Erin, The
R:reel
C:Tony Sullivan
D:Martin Hayes & Dennis Cahill: Live in Seattle
Z:id:hn-reel-838
M:C|
L:1/8
K:Dmix
FGAG FDDE | FGAG FDD2 | de=fe dcAG | (3EFG AB cAGE |
FGAG FDDE | FDAG FDDC | A,DED CDA,D |1 G,A,CD EDDE :|2 G,A,CD EDFA ||
|: dfed cAGc | ~A2GA FAEA | dfed (3B^cd ef | geag f2e^c |
dfed cAGc | ~A2GA FAEA | DAAB cAdB |1 cAGE D2FA :|2 cAGE EDDE ||
P:variations
|: FGAG FDD2 | FGAG FDFA | de=fe dcAD | (3EFG AB c2AG |
FGAG FDD2 | FDAD FDCD | A,3D CA,~A,2 |1 G,A,CD EDDE :|2 G,A,CD EDDA ||
|: dfed cAAd | cAGA FAEA | dfed ^cdef | geag fdd^c |
dfed cAAd | cAGA FAEA | D2FA c2dB |1 cAGE EDFA :|2 cAGE EDDE ||

